X: 147105
Q: "Slow."
M: 6/8
L: 1/8
K: Amix
uA |\
|: uf |\
a>Aa fed | a>Aa fed | a>Aa fed | vf2ve ue2uf |\
a>Aa fed | e>AA f2d | efa f2e | dBA A2 :|


